svgs/sharp-light/table-cells-large.svg

<svg xmlns="http://www.w3.org/2000/svg" viewBox="0 0 512 512"><!--! Font Awesome Pro 6.6.0 by @fontawesome - https://fontawesome.com License - https://fontawesome.com/license (Commercial License) Copyright 2024 Fonticons, Inc. --><path d="M272 64l0 176 208 0 0-176L272 64zm-32 0L32 64l0 176 208 0 0-176zM32 272l0 176 208 0 0-176L32 272zM272 448l208 0 0-176-208 0 0 176zM0 32l32 0 448 0 32 0 0 32 0 384 0 32-32 0L32 480 0 480l0-32L0 64 0 32z"/></svg>

<svg xmlns="http://www.w3.org/2000/svg" viewBox="0 0 512 512"><!--! Font Awesome Pro 6.4.2 by @fontawesome - https://fontawesome.com License - https://fontawesome.com/license (Commercial License) Copyright 2023 Fonticons, Inc. --><path d="M272 64V240H480V64H272zm-32 0H32V240H240V64zM32 272V448H240V272H32zM272 448H480V272H272V448zM0 32H32 480h32V64 448v32H480 32 0V448 64 32z"/></svg>
